modules/hawcons-stroke/icons/icon-39-volleyball-water.svg

<?xml version="1.0" encoding="UTF-8" standalone="no"?>
<svg width="32px" height="32px" viewBox="0 0 32 32" version="1.1" xmlns="http://www.w3.org/2000/svg" xmlns:xlink="http://www.w3.org/1999/xlink" xmlns:sketch="http://www.bohemiancoding.com/sketch/ns">
    <!-- Generator: Sketch 3.0.3 (7891) - http://www.bohemiancoding.com/sketch -->
    <title>icon 39 volleyball water</title>
    <desc>Created with Sketch.</desc>
    <defs></defs>
    <g id="Page-1" stroke="none" stroke-width="1" fill="none" fill-rule="evenodd" sketch:type="MSPage">
        <g id="icon-39-volleyball-water" sketch:type="MSArtboardGroup" fill="#929292">
            <path d="M5.48947607,22.4683726 L5.9686457,22.2364065 C4.72254295,20.292352 4,17.9805555 4,15.5 C4,8.59644063 9.59644063,3 16.5,3 C23.4035594,3 29,8.59644063 29,15.5 C29,18.4066458 28.0079125,21.0815771 26.3438817,23.2046497 C26.2603742,23.240595 26.4722312,23.1504874 26.6602386,23.0627613 C27.232885,22.7955589 27.7945895,22.4770403 28.3445677,22.1119187 C28.9676127,21.6982892 29.5218456,21.2553569 30,20.8128626 L30,22.1351685 C29.6589439,22.4118442 29.2911141,22.6838309 28.8976618,22.9450375 C25.2756119,25.3496576 21.1192781,25.9024762 16.7340541,23.4357878 C12.7121486,21.1734659 8.66913991,21.685765 4.91695258,23.9249735 C4.20432767,24.3502497 3.56383783,24.8059828 3.00635224,25.2609895 C3.00423059,25.2627211 3,24.0002765 3,24.0002765 C3.43236754,23.6808784 3.90145717,23.366461 4.40449507,23.0662609 C4.73490658,22.8690799 5.0678537,22.6843053 5.4031115,22.5125834 C5.43304538,22.497251 5.48947607,22.4683726 5.48947607,22.4683726 L5.48947607,22.4683726 Z M10.8211587,20.9817697 C13.188303,19.5495357 15.2475215,17.535202 16.7626521,15.0020482 C18.6970515,15.0322362 20.5506503,15.3953061 22.2686848,16.0364943 C21.1580033,18.6869724 19.441108,20.9179249 17.3400995,22.6257845 C17.2869979,22.5981609 17.2463137,22.5765863 17.2243153,22.5642122 C15.2332524,21.4442393 13.235755,20.9491167 11.2702559,20.9684257 C10.9551944,20.9715209 10.656417,20.9899319 10.8211587,20.9817697 L10.8211587,20.9817697 Z M24.4386554,23.8203488 C25.6644575,22.6504382 26.6321153,21.212387 27.2475015,19.6003228 C27.3519429,19.3267283 27.4561273,19.0072086 27.4163332,19.1270371 C26.1707462,18.0272482 24.7578167,17.1126185 23.2206204,16.4262238 C22.1059046,19.0901389 20.413962,21.3548376 18.3450605,23.1269332 C18.335424,23.122676 18.3257858,23.1184031 18.316146,23.1141145 C20.2598807,23.9788461 22.1384897,24.2052346 23.9315139,23.9162305 C24.2027193,23.8725169 24.5391206,23.7985478 24.4386554,23.8203488 L24.4386554,23.8203488 Z M16.4257586,27.9997842 C16.4504888,27.999928 16.475236,28 16.5,28 C16.5248831,28 16.5497492,27.9999273 16.5745982,27.9997821 L16.4257586,27.9997842 L16.4257586,27.9997842 L16.4257586,27.9997842 Z M7.78698529,7.99414597 C7.68606115,11.9648396 8.89147807,15.9838277 11.4641737,19.354589 C10.0426206,20.3888845 8.47295379,21.1815442 6.82215337,21.7146208 C6.88400268,21.8107378 6.44831298,21.1160127 6.21227352,20.6449522 C5.43656883,19.0968896 5,17.3494278 5,15.5 C5,12.9382768 5.83761093,10.5721882 7.25389802,8.66066882 C7.48727254,8.34569037 7.85688587,7.91307651 7.78698529,7.99414597 L7.78698529,7.99414597 L7.78698529,7.99414597 Z M8.88195368,6.88498775 C8.50346368,10.9872646 9.60947437,15.22519 12.2765511,18.7236176 C13.6816189,17.5598001 14.9150352,16.1423113 15.9031634,14.490882 C14.1142604,11.2789029 13.4445036,7.73835195 13.7716091,4.32559864 C13.8474479,4.30714592 13.4531523,4.40441741 13.1856846,4.4847821 C11.8584757,4.88356211 10.6322398,5.515656 9.55462729,6.33341361 C9.18495324,6.61394465 8.75198005,7.00000669 8.88195368,6.88498775 L8.88195368,6.88498775 L8.88195368,6.88498775 Z M26.8114111,10.4025897 C23.3541975,8.18107219 19.1321168,7.13074654 14.7798484,7.69601999 C14.6557363,6.50188148 14.6637481,5.30444495 14.798165,4.12505258 C14.7143459,4.13748613 15.2180516,4.06552942 15.5599413,4.03786932 C15.8699823,4.01278589 16.183498,4 16.5,4 C20.6605669,4 24.3050905,6.20944379 26.324265,9.51902549 C26.5360309,9.86612611 26.8430699,10.4665089 26.8114111,10.4025897 L26.8114111,10.4025897 L26.8114111,10.4025897 Z M27.5052298,12.1526241 C24.0445628,9.46220598 19.560138,8.11423639 14.9182196,8.71528005 C15.2218788,10.5241653 15.8343162,12.3114009 16.7755907,14.002126 C20.9347846,14.0663383 24.7419251,15.5815314 27.7131506,18.0638439 C27.6944692,18.1458897 27.8134714,17.6060367 27.8683194,17.2459269 C27.9550329,16.6766012 28,16.0935519 28,15.5 C28,14.5484882 27.8844403,13.6239667 27.6665899,12.7397046 C27.565081,12.3276766 27.4415152,11.9428769 27.5052298,12.1526241 L27.5052298,12.1526241 L27.5052298,12.1526241 Z M5.97918473,25.2315158 C9.57096738,23.5663353 13.4094518,23.4183515 17.2243153,25.5642122 C20.7057597,27.5225247 23.9951911,27.4100099 26.9791847,25.9080898 L26.9791847,27.0171869 C23.8363841,28.4505192 20.3636203,28.4774188 16.7340541,26.4357878 C13.0890325,24.3854631 9.42667744,24.6141165 5.97918473,26.3418345 L5.97918473,25.2315158 L5.97918473,25.2315158 L5.97918473,25.2315158 Z" id="volleyball-water" sketch:type="MSShapeGroup"></path>
        </g>
    </g>
</svg>

<svg width="32" height="32" viewBox="0 0 32 32" xmlns="http://www.w3.org/2000/svg"><path d="M5.49 22.468l.479-.232A12.441 12.441 0 0 1 4 15.5C4 8.596 9.596 3 16.5 3S29 8.596 29 15.5c0 2.907-.992 5.582-2.656 7.705-.084.036.128-.055.316-.142a12.95 12.95 0 0 0 1.685-.951 13.166 13.166 0 0 0 1.655-1.3v1.323c-.341.277-.709.549-1.102.81-3.622 2.405-7.779 2.957-12.164.49-4.022-2.262-8.065-1.75-11.817.49-.713.425-1.353.881-1.91 1.336-.003.002-.007-1.26-.007-1.26a17.207 17.207 0 0 1 2.49-1.533zm5.331-1.486a17.414 17.414 0 0 0 5.942-5.98c1.934.03 3.788.393 5.506 1.034a16.876 16.876 0 0 1-4.929 6.59 4.833 4.833 0 0 1-.116-.062c-1.99-1.12-3.988-1.615-5.954-1.596-.315.004-.614.022-.449.014zM24.44 23.82a11.515 11.515 0 0 0 2.809-4.22c.104-.273.208-.593.168-.473a16.515 16.515 0 0 0-4.195-2.7 17.898 17.898 0 0 1-4.876 6.7l-.029-.013c1.944.865 3.822 1.091 5.616.802.27-.043.607-.117.507-.096zM16.426 28a12.768 12.768 0 0 0 .149 0h-.15zM7.787 7.994c-.1 3.97 1.104 7.99 3.677 11.36a16.518 16.518 0 0 1-4.642 2.36c.062.097-.374-.598-.61-1.069A11.452 11.452 0 0 1 5 15.5c0-2.562.838-4.928 2.254-6.84.233-.314.603-.747.533-.666zm1.095-1.109a16.917 16.917 0 0 0 3.395 11.839 16.454 16.454 0 0 0 3.626-4.233 17.416 17.416 0 0 1-2.131-10.165c.075-.019-.319.078-.586.159a11.463 11.463 0 0 0-3.631 1.848c-.37.28-.803.667-.673.552zm17.93 3.518A17.932 17.932 0 0 0 14.78 7.696a16.486 16.486 0 0 1 .018-3.57c-.084.011.42-.06.762-.088a11.493 11.493 0 0 1 10.764 5.481c.212.347.52.948.487.884zm.693 1.75a16.927 16.927 0 0 0-12.587-3.438 16.453 16.453 0 0 0 1.858 5.287c4.159.064 7.966 1.58 10.937 4.062-.019.082.1-.458.155-.818a11.59 11.59 0 0 0-.201-4.506c-.102-.412-.225-.797-.162-.587zM5.98 25.232c3.592-1.666 7.43-1.814 11.245.332 3.482 1.959 6.771 1.846 9.755.344v1.11c-3.143 1.433-6.615 1.46-10.245-.582-3.645-2.05-7.307-1.822-10.755-.094v-1.11z" fill="#929292" fill-rule="evenodd"/></svg>
